KINDER
CUT[ES ZOG EIN MANN DURCH ASIENLAND]
REG[Europa, Mitteleuropa, Deutschland, Kassel]
KEY[K2352  16  G 2/4]
MEL[-5_  1_1_1_3_  1_.-5-5_3_  1__0_
    3_  3_3_3_3_  3_.21_0_
    2_2_2_2_  1_3_5_
    3_  4_4_4_4_  3_.33__
    2_2_2_2_  1__0_ //] >>
FCT[Kinder - Lied, Reigen, Tanz - Spiel, Ballade]
